X:259
T:McKenna's
S:Shena Tschofen
R:jig
M:6/8
L:1/8
K:Em
E3 EDB | EDE G2 (3Bcd | edB AFA | dAF FED |
E3 EDB | EDE G2 (3Bcd | edB AFA | dAF E2D ::
B2e edB | baf edB | A2d BAd | DFA BAF |
E3 EDB | DED DFE | DFA dAF |1 GFD EGA :|2 GFD E2D |]
